NotoEmoji/1f1e7-1f1fb.svg

<svg xmlns="http://www.w3.org/2000/svg" viewBox="0 0 36 36"><path fill="#EF2B2D" d="M10 5H4C1.791 5 0 6.791 0 9v6h10V5zm22 0H16v10h20V9c0-2.209-1.791-4-4-4zM16 31h16c2.209 0 4-1.791 4-4.5V21H16v10zM0 21v5.5C0 29.209 1.791 31 4 31h6V21H0z"/><path fill="#002868" d="M14.5 5h-2.944l-.025 11.5H0v3h11.525L11.5 31h3V19.5H36v-3H14.5z"/><path fill="#FFF" d="M14.5 31H16V21h20v-1.5H14.5zM16 5h-1.5v11.5H36V15H16zm-4.5 0H10v10H0v1.5h11.5zM0 19.5V21h10v10h1.5V19.5z"/></svg>

<svg viewBox="0 0 36 36" xmlns="http://www.w3.org/2000/svg"><path d="m10 5h-6c-2.21 0-4 1.79-4 4v6h10zm22 0h-16v10h20v-6c0-2.21-1.79-4-4-4zm-16 26h16c2.21 0 4-1.79 4-4.5v-5.5h-20zm-16-10v5.5c0 2.71 1.79 4.5 4 4.5h6v-10z" fill="#ef2b2d"/><path d="m14.5 5h-2.94l-.03 11.5h-11.53v3h11.53l-.03 11.5h3v-11.5h21.5v-3h-21.5z" fill="#002868"/><path d="m14.5 31h1.5v-10h20v-1.5h-21.5zm1.5-26h-1.5v11.5h21.5v-1.5h-20zm-4.5 0h-1.5v10h-10v1.5h11.5zm-11.5 14.5v1.5h10v10h1.5v-11.5z" fill="#fff"/></svg>
